X: 1
T: Johnny Ward's
M: 4/4
L: 1/8
R: strathspey
K: Gmaj
d2 B>G d>GB>G | (3ABA F>A D3 D | D2 B>G d>GB>d |g>bf>a e>gf>e |
d2 B>G d>GB>G | (3ABA F>A D3 D |D2 B>G d>GB>d | g>bf>a e>gf>e ||
e<AB>A e>gf>e |d2 B>G d>GB>d | e<AB>A e>af>f | (3gag (3fgf e>gf>a |
e<AB>A e>gf>e | d2 B>G d>GB>d | e<AB>A e>af>f |(3gag (3fgf e>gf>e |]
